assets/plus.svg

<svg width="40" height="41" viewBox="0 0 40 41" fill="none" xmlns="http://www.w3.org/2000/svg">
<rect y="0.723633" width="40" height="40" rx="20" fill="#1A191E"/>
<path d="M19 19.7236V13.7236H21V19.7236H27V21.7236H21V27.7236H19V21.7236H13V19.7236H19Z" fill="white"/>
</svg>

<svg width="40" height="41" fill="none" xmlns="http://www.w3.org/2000/svg"><rect y=".724" width="40" height="40" rx="20" fill="#1A191E"/><path d="M19 19.724v-6h2v6h6v2h-6v6h-2v-6h-6v-2h6Z" fill="#fff"/></svg>
